svgs/thin/books.svg

<svg xmlns="http://www.w3.org/2000/svg" viewBox="0 0 512 512"><!-- Font Awesome Pro 6.0.0-alpha2 by @fontawesome - https://fontawesome.com License - https://fontawesome.com/license (Commercial License) --><path d="M510.615 445.316L397.768 29.551C392.936 11.742 376.623 0 358.797 0C355.34 0 351.822 0.441 348.324 1.367L285.932 17.871C279.418 19.594 274.084 23.117 269.443 27.332C264.092 11.543 249.598 0 232 0H168C154.561 0 143.254 7.062 136 17.227C128.746 7.062 117.439 0 104 0H40C17.908 0 0 17.91 0 40V472C0 494.09 17.908 512 40 512H104C117.439 512 128.746 504.938 136 494.773C143.254 504.938 154.561 512 168 512H232C254.092 512 272 494.09 272 472V120.523L370.232 482.449C375.066 500.258 391.377 512 409.205 512C412.662 512 416.178 511.559 419.676 510.633L482.068 494.129C503.605 488.43 516.385 466.578 510.615 445.316ZM366.889 409.047L291.664 131.898L401.111 102.953L476.336 380.102L366.889 409.047ZM168 16H232C245.234 16 256 26.766 256 40V96H144V40C144 26.766 154.768 16 168 16ZM256 400H144V112H256V400ZM16 112H128V400H16V112ZM16 40C16 26.766 26.768 16 40 16H104C117.234 16 128 26.766 128 40V96H16V40ZM104 496H40C26.768 496 16 485.234 16 472V416H128V472C128 485.234 117.234 496 104 496ZM256 472C256 485.234 245.234 496 232 496H168C154.768 496 144 485.234 144 472V416H256V472ZM275.162 44.637C278.398 39.031 283.676 35.02 290.023 33.34L352.414 16.836C354.51 16.281 356.656 16 358.799 16C369.816 16 379.492 23.297 382.326 33.742L396.928 87.539L396.799 87.574V87.57L339.605 102.699L287.48 116.484L272.826 62.492C271.184 56.434 272.012 50.094 275.162 44.637ZM492.838 467.363C489.602 472.969 484.324 476.98 477.977 478.66L415.586 495.164C413.49 495.719 411.342 496 409.205 496C398.186 496 388.508 488.703 385.674 478.258L371.072 424.461L371.201 424.426V424.43L396.938 417.617L480.52 395.516L495.174 449.508C496.818 455.566 495.988 461.906 492.838 467.363Z"/></svg>

<svg xmlns="http://www.w3.org/2000/svg" viewBox="0 0 512 512"><!--! Font Awesome Pro 6.0.0-alpha3 by @fontawesome - https://fontawesome.com License - https://fontawesome.com/license (Commercial License) --><path d="M510.6 445.3L397.8 29.55C392.9 11.74 376.6 0 358.8 0c-3.457 0-6.975 .4414-10.47 1.367l-62.39 16.5c-6.514 1.723-11.85 5.246-16.49 9.461C264.1 11.54 249.6 0 232 0h-64c-13.44 0-24.75 7.062-32 17.23C128.7 7.062 117.4 0 104 0h-64C17.91 0 0 17.91 0 40v432C0 494.1 17.91 512 40 512h64c13.44 0 24.75-7.062 32-17.23C143.3 504.9 154.6 512 168 512h64c22.09 0 40-17.91 40-40V120.5l98.23 361.9C375.1 500.3 391.4 512 409.2 512c3.457 0 6.973-.4414 10.47-1.367l62.39-16.5C503.6 488.4 516.4 466.6 510.6 445.3zM366.9 409l-75.22-277.1l109.4-28.95l75.22 277.1L366.9 409zM168 16h64C245.2 16 256 26.77 256 40V96H144V40C144 26.77 154.8 16 168 16zM256 400H144v-288H256V400zM16 112H128v288H16V112zM16 40c0-13.23 10.77-24 24-24h64C117.2 16 128 26.77 128 40l.0011 56L16 96V40zM104 496h-64c-13.23 0-24-10.77-24-24V416l112 0L128 472C128 485.2 117.2 496 104 496zM256 472c0 13.23-10.77 24-24 24h-64c-13.23 0-24-10.77-24-24V416H256V472zM275.2 44.64c3.236-5.605 8.514-9.617 14.86-11.3l62.39-16.5C354.5 16.28 356.7 16 358.8 16c11.02 0 20.69 7.297 23.53 17.74l14.6 53.8l-109.4 28.95l-14.65-53.99C271.2 56.43 272 50.09 275.2 44.64zM492.8 467.4c-3.236 5.605-8.514 9.617-14.86 11.3l-62.39 16.5C413.5 495.7 411.3 496 409.2 496c-11.02 0-20.7-7.297-23.53-17.74l-14.6-53.8l109.4-28.95l14.65 53.99C496.8 455.6 495.1 461.9 492.8 467.4z"/></svg>
